assets/Fork and knife/Flat/fork_and_knife_flat.svg

<svg width="32" height="32" viewBox="0 0 32 32" fill="none" xmlns="http://www.w3.org/2000/svg">
<path d="M13.67 2.00067C13.14 2.00067 12.72 2.42067 12.72 2.94067V6.64067C12.72 6.91067 12.5 7.13067 12.23 7.13067C11.96 7.13067 11.74 6.91067 11.74 6.64067V2.98067C11.74 2.46067 11.34 2.01067 10.83 2.00067C10.3 1.98067 9.86 2.41067 9.86 2.94067V6.64067C9.86 6.91067 9.64 7.13067 9.37 7.13067C9.1 7.13067 8.88 6.91067 8.88 6.64067V2.98067C8.88 2.46067 8.48 2.01067 7.97 2.00067C7.44 1.98067 7 2.41067 7 2.94067V9.26067C7 10.5001 7.5894 11.5997 8.50296 12.2944C9.35 12.9134 9.35 14.9107 9.35 14.9107V28.7107C9.35 29.4207 9.93 30.0007 10.64 30.0007H10.96C11.67 30.0007 12.25 29.4207 12.25 28.7107V14.9007C12.25 14.9007 12.25 12.8644 13.0838 12.2944C14.0049 11.6003 14.6 10.4961 14.6 9.25067V2.94067C14.61 2.42067 14.19 2.00067 13.67 2.00067Z" fill="#9B9B9B"/>
<path d="M23.06 2.00061C24.3 2.00061 25.3 3.00061 25.3 4.24061V17.8906L25.29 17.887V28.7006C25.29 29.4106 24.71 29.9906 24 29.9906H23.68C22.97 29.9906 22.39 29.4106 22.39 28.7006V16.8369C20.8453 16.1365 19.84 14.591 19.84 12.8706V5.22061C19.83 3.44061 21.28 2.00061 23.06 2.00061Z" fill="#9B9B9B"/>
</svg>

<svg xmlns="http://www.w3.org/2000/svg" width="32" height="32" fill="none"><path fill="#9B9B9B" d="M13.67 2c-.53 0-.95.42-.95.94v3.7a.49.49 0 0 1-.98 0V2.98c0-.52-.4-.97-.91-.98a.94.94 0 0 0-.97.94v3.7a.49.49 0 0 1-.98 0V2.98c0-.52-.4-.97-.91-.98a.94.94 0 0 0-.97.94v6.32a3.8 3.8 0 0 0 1.503 3.034c.847.62.847 2.617.847 2.617v13.8c0 .71.58 1.29 1.29 1.29h.32c.71 0 1.29-.58 1.29-1.29V14.9s0-2.037.834-2.607A3.8 3.8 0 0 0 14.6 9.251V2.94a.924.924 0 0 0-.93-.94ZM23.06 2c1.24 0 2.24 1 2.24 2.24v13.65l-.01-.003v10.814c0 .71-.58 1.29-1.29 1.29h-.32c-.71 0-1.29-.58-1.29-1.29V16.837a4.351 4.351 0 0 1-2.55-3.966V5.22C19.83 3.44 21.28 2 23.06 2Z"/></svg>
